ethernet-off.svg

<svg fill="currentColor" viewBox="0 0 24 24"><path d="M2.39 1.73 1.11 3l1.21 1.21c-.2.35-.32.74-.32 1.17v14.25A2.37 2.37 0 0 0 4.38 22h15.25c.15 0 .29 0 .44-.04l.77.77 1.27-1.27zM15 18h-2v-3h-2v3H9v-3H7v3H5V9h2.11L15 16.89zM9.2 6l-3-3h13.43A2.37 2.37 0 0 1 22 5.38V18.8l-3-3V9h-4V6z"/></svg>

<svg  viewBox="0 0 24 24" fill="currentColor"><path  d="M2.39 1.73L1.11 3L2.32 4.21C2.12 4.56 2 4.95 2 5.38V19.63C2 20.94 3.06 22 4.38 22H19.63C19.78 22 19.92 22 20.07 21.96L20.84 22.73L22.11 21.46L2.39 1.73M15 18H13V15H11V18H9V15H7V18H5V9H7.11L15 16.89V18M9.2 6L6.2 3H19.63C20.94 3 22 4.06 22 5.38V18.8L19 15.8V9H15V6H9.2Z"/></svg>
